X:1
T:Title
%%score { ( 1 4 5 ) | ( 2 3 ) }
L:1/8
M:4/4
K:F
V:1 treble nm="Grand Piano"
V:4 treble 
V:5 treble 
V:2 bass 
V:3 bass 
V:1
 z4 z2 z[Q:1/4=84] F | [DF]dcB [_EA]2 [EA][EG] | [_EF][EG][EF][EG] z2 z F | z GAB [FAc]2 [FA][FA] | %4
 z4 [_EFc]4 | [DF]dcB [_EA]2 [EA][EG] |[M:7/8] [_EF][EG][EF] [EG] z2 B, |[M:1/8] F | %8
[M:4/4] FFGF [C_Ec]2 [FA][FA] |[M:7/8] [DB]2 [CE]2 [A,CF]3 |[M:1/8] z | %11
[M:12/8][Q:1/4=100] [Fd]3 [Gd]3 [Ad]3 [Bd]3 | [c_e]6 [Fe]6 | [F_e]3 [Ae]3 [ce]3 [Ae]3 | [G^c]6 z6 | %15
 [d^fd']6 [Bgb]3 [d=fd']3 | [cec']6 [Afa]3 [FAf]3 | [Gdg]2 [A^fa] [Bgb]2 [cac'] [dbd']3 [ebe']3 | %18
 [af']-[fa-f'-][fa-f'-] [fa-f'-][fa-f'-][fa-f'-] [fa-f'-][fa-f'-][fa-f'-] [fa-f'-][faf']f | %19
 [Fd]3 [Gd]3 [Ad]3 [Bd]3 | [c_e]6 [Fe]6 | [F_e]3 [Ae]3 [ce]3 [^cg]3 | ^f6 z3 d3 | d6 _e3 =B3 | %24
 d3 c3 B3 G3 | .F3 .A3 d3 c3 |[M:11/8] [DFB]-[DFB]-[DFB]-[DFB]-[DFB]-[DFB]- [DFB]3 z2 |] %27
V:2
 z4 z2 z D | z[K:treble] [DF][DF][DF][K:bass] [C,,C,]2 [F,A,]2 | z4 z2 F,2 | %3
 [D,,D,]2 [^C,,^C,]2 [=C,,=C,]2 [C,C]2 | [C,,C,]2 [C,G,C]2 [F,,C,A,]2 F,D | %5
 z[K:treble] [DF][DF][DF][K:bass] [C,,C,]2 [F,A,]2 |[M:7/8] [F,,F,]2 [F,A,]2 [B,,,B,,]2 F, | %7
[M:1/8] [B,D] |[M:4/4] =B,B,B,B, [C,F,A,]2 [C,F,A,]2 |[M:7/8] [G,,G,]2 [C,G,B,]2 [F,,F,]2 F, | %10
[M:1/8] F | %11
[M:12/8] [B,,,B,,][F,B,][F,B,] [F,B,D][F,B,][F,B,] [F,B,D][F,B,][F,B,] [F,B,D][F,B,][F,B,] | %12
 [F,,F,][F,A,C][F,A,C] [F,A,C][F,A,C][F,A,C] [F,A,C_E][F,A,C][F,A,C] [F,A,C][F,A,C][F,A,CEF] | %13
 [F,,F,][F,A,][F,A,] [F,A,C_E][F,A,][F,A,] [F,A,CE][F,A,][F,A,] [F,A,CE]F,F, | %14
 B,,[E,B,][E,B,] [E,B,][E,B,][E,B,] [D,B,D]3 [D,B,D]3 | %15
 [D,,D,][D,^F,][D,F,] [D,F,][D,F,][D,F,A,] [G,,G,][G,B,][G,B,] [G,=B,D][G,B,][G,B,] | %16
 [C,,C,][G,C][G,C] [G,C][G,C][G,CE] [F,,F,][F,A,][F,A,] [F,A,C][F,A,][F,A,] | %17
 [B,,B,][B,,B,][A,,A,] [G,,G,][G,,G,][F,,F,] [B,,,B,,]3 [C,,C,]3 | %18
 [F,,F,]3 [_E,,_E,]3 [D,,D,]3 z2 F | %19
 [B,,,B,,][F,B,][F,B,] [F,B,D][F,B,][F,B,] [F,B,D][F,B,][F,B,] [F,B,D][F,B,][F,B,] | %20
 [F,,F,][F,A,C][F,A,C] [F,A,C][F,A,C][F,A,C] [F,A,C_E][F,A,C][F,A,C] [F,A,C][F,A,C][F,A,CEF] | %21
 [F,,F,][F,A,][F,A,] [F,A,C_E][F,A,][F,A,] [F,A,CE][F,A,][F,A,] [F,A,CE][F,A,][F,A,] | %22
 z[K:treble] ^FF[K:bass] z[K:treble] FF[K:bass] z[K:treble] GG[K:bass] z[K:treble] [FA][FA] | %23
 z[K:treble] FF FF[F=B][K:bass] z[K:treble] FF .[G,B,DF]3 | z _EE z EE z ^CC .[E,G,B,C]3 | %25
 [F,B,D][F,B,][F,B,D] [F,B,D][F,B,][F,B,] [C,G,B,][C,G,B,][C,G,B,] [F,A,_E]F,F, | %26
[M:11/8] B,,3 F,,3 B,,,3 z2 |] %27
V:3
 x8 | [B,,,B,,]2[K:treble] [F,B,]2[K:bass] z4 | [F,,F,]2 [F,A,]2 [B,,,B,,]2 z D | x8 | x8 | %5
 [B,,,B,,]2[K:treble] [F,B,]2[K:bass] z4 |[M:7/8] x7 |[M:1/8] x |[M:4/4] [D,G,]2 [D,G,]2 z4 | %9
[M:7/8] x7 |[M:1/8] x |[M:12/8] x12 | x12 | x12 | x12 | x12 | x12 | x12 | z6 z3 [C,,C,]3 | x12 | %20
 x12 | x12 | %22
 [D,D]3[K:treble][K:bass] [C,C]3[K:treble][K:bass] [B,,B,]3[K:treble][K:bass] [A,,A,]3[K:treble] | %23
 [G,,G,]3[K:treble] [G,B,D]3[K:bass] [G,,G,]3[K:treble] z3 | [C,,C,]3 [_E,G,C]3 [E,,=E,]3 z3 | %25
 x12 |[M:11/8] x11 |] %27
V:4
 x8 | x8 | z4 [DF]4 | F2 F2 z4 | [EG]2 [EGc]2 z2 A,F | x8 |[M:7/8] z z z2 [DF]3 |[M:1/8] x | %8
[M:4/4] x8 |[M:7/8] x7 |[M:1/8] x |[M:12/8] z DD z DD z DD z DD | z _EE EE[EA_e] z EE EEe | %13
 z [C_E][CE] z [CE][CE] z [CE][CE] z [A,CE][A,CE] | z ^CC CCC [Fd]3 [dd']3 | %15
 z A,A, A,A,[c^fc'] z DD z DD | z EE EE[Beb] z CC z CC | x12 | .f3 z3 z6 | z DD z DD z DD z DD | %20
 z _EE EE[EA_e] z EE EEe | z [C_E][CE] z [CE][CE] z [CE][CE] z [CE][CE] | %22
 d-[Ad-][Ad-] [^FAd-][Ad-][Ad-] [GBd-][Bd-][Bd] [FAc]cc | [F=B]BB BBd [FB]BB z FF | %24
 [_EG]GG [EG]GG [^CG]GG z CC | z DG z D[DB] [EG][EG][EG] A[A,_EA][A,EA] | %26
[M:11/8] B,3 F,3 B,,3 z2 |] %27
V:5
 x8 | x8 | z4 z2 B,2 | x8 | x8 | x8 |[M:7/8] x7 |[M:1/8] x |[M:4/4] x8 |[M:7/8] x7 |[M:1/8] x | %11
[M:12/8] x12 | x12 | x12 | x12 | x12 | x12 | x12 | x12 | x12 | x12 | x12 | x12 | x12 | x12 | x12 | %26
[M:11/8] x11 |] %27

